dist/svg/u1F6F5.svg

<?xml version="1.0" encoding="UTF-8"?><svg id="Layer_1" xmlns="http://www.w3.org/2000/svg" viewBox="0 0 40 40"><rect width="40" height="40" style="fill:none;"/><g><path d="M19.26394,5.38124c-.52054,0-.94252,.42039-.94252,.93898,0,.51858,.42198,.93898,.94252,.93898h3.67228v-1.87795h-3.67228Z" style="fill:#2f81f9;"/><ellipse cx="30.37711" cy="30.44032" rx="5.9734" ry="5.95092" style="fill:#313d4c;"/><ellipse cx="30.37711" cy="30.44032" rx="2.9867" ry="2.97546" style="fill:#6b7683;"/><ellipse cx="10.72788" cy="30.44032" rx="5.9734" ry="5.95092" style="fill:#313d4c;"/><path d="M19.1047,18.42266H6.99937c-3.38151,3.56349-4.26683,9.6742-4.49172,12.15469-.05328,.5877,.40556,1.09437,.99567,1.09437l22.05098-.00003,.01831-.00004c.92961-.00449,1.79087-.47968,2.39743-1.1815,1.31888-1.52601,4.60388-6.84413,4.60388-6.84413,.44048-1.92427,.45632-1.50897,.45632-1.50897l-7.90908-13.16318c-.16232-.2322,.00447-.55039,.2885-.55039h1.35483c.33439,0,.58527-.30577,.51997-.63372l-.74762-3.75437c-.04983-.25025-.27829-.43364-.53336-.42642-.95129,.02693-1.72924,.14029-2.36563,.30834-1.8246,.48183-2.91826,2.47814-2.47026,4.30492l3.9281,15.24879c.1852,.71894-.35769,1.4194-1.1001,1.4194h-3.28683c-.88589,0-1.60405-.71816-1.60405-1.60405v-4.8637" style="fill:#64a7ff;"/><path d="M7.00871,14.99493h12.09599v1.35729c0,1.14271-.92774,2.07045-2.07045,2.07045h-7.95509c-1.14271,0-2.07045-.92774-2.07045-2.07045v-1.35729h0Z" transform="translate(26.1134 33.4176) rotate(-180)" style="fill:#2f81f9;"/><path d="M26.98027,21.28451h10.5163v7.53103h-3.98528c-3.88053,0-7.03102-3.1505-7.03102-7.03102h0c0-.27597,.22404-.50001,.5-.50001Z" transform="translate(63.97683 50.10005) rotate(-180)" style="fill:#64a7ff;"/></g></svg>

<svg id="Layer_1" data-name="Layer 1" xmlns="http://www.w3.org/2000/svg" viewBox="0 0 40 40"><defs><style>.cls-1{fill:none;}.cls-2{fill:#2f81f9;}.cls-3{fill:#313d4c;}.cls-4{fill:#6b7683;}.cls-5{fill:#5a81ff;}.cls-6{fill:#64a7ff;}</style></defs><rect class="cls-1" width="40" height="40"/><path class="cls-2" d="M19.264,5.381a.939.939,0,1,0,0,1.878h3.672V5.381Z"/><ellipse class="cls-3" cx="30.377" cy="30.44" rx="5.973" ry="5.951"/><ellipse class="cls-4" cx="30.377" cy="30.44" rx="2.987" ry="2.975"/><ellipse class="cls-3" cx="10.728" cy="30.44" rx="5.973" ry="5.951"/><line class="cls-5" x1="19.074" y1="24.2" x2="19.105" y2="18.423"/><path class="cls-6" d="M19.105,18.423H7C3.618,21.986,2.733,28.1,2.508,30.577a1,1,0,0,0,1,1.095h22.07a3.246,3.246,0,0,0,2.4-1.182c1.319-1.526,4.6-6.844,4.6-6.844.44-1.924.456-1.509.456-1.509L25.121,8.974a.351.351,0,0,1,.289-.551h1.354a.529.529,0,0,0,.52-.633l-.747-3.755A.534.534,0,0,0,26,3.609a10.449,10.449,0,0,0-2.365.308,3.6,3.6,0,0,0-2.47,4.305L25.1,23.471A1.136,1.136,0,0,1,24,24.89H20.709a1.6,1.6,0,0,1-1.6-1.6V18.423"/><path class="cls-2" d="M7.009,14.995H19.1a0,0,0,0,1,0,0v1.357a2.07,2.07,0,0,1-2.07,2.07H9.079a2.07,2.07,0,0,1-2.07-2.07V14.995A0,0,0,0,1,7.009,14.995Z" transform="translate(26.113 33.418) rotate(-180)"/><path class="cls-6" d="M26.98,21.285H37.5a0,0,0,0,1,0,0v7.531a0,0,0,0,1,0,0H33.511a7.031,7.031,0,0,1-7.031-7.031v0a.5.5,0,0,1,.5-.5Z" transform="translate(63.977 50.1) rotate(-180)"/></svg>
